X: 110203
Q: "Strathspey."
M: C
L: 1/8
K: G
uD |\
ud |\
g2 d>g B>g d>f | g2 b>g e2 e>f |
(3gab (3agf (3efg (3dcB | (3cde (3def (3ged (3cBA |\
(3gab (3agf (3gfe (3dcB | (3cde (3def g2 (g<b) |]


